communes/5307.svg

<?xml version="1.0" encoding="UTF-8"?>
<svg version="1.0" viewBox="0 0 603 763" xmlns="http://www.w3.org/2000/svg" xmlns:cc="http://web.resource.org/cc/" xmlns:dc="http://purl.org/dc/elements/1.1/" xmlns:rdf="http://www.w3.org/1999/02/22-rdf-syntax-ns#" xmlns:xlink="http://www.w3.org/1999/xlink">
<metadata>
<rdf:RDF>
<cc:Work rdf:about="">
<dc:format>image/svg+xml</dc:format>
<dc:type rdf:resource="http://purl.org/dc/dcmitype/StillImage"/>
<dc:date>07-AUG-2006</dc:date>
<dc:creator>
<cc:Agent>
<dc:title>Jérôme BLUM (wagner51)</dc:title>
</cc:Agent>
</dc:creator>
<cc:license rdf:resource="http://creativecommons.org/licenses/GPL/2.0/"/>
<dc:coverage/>
<dc:description>Gabarit pour le Projet:Blasons de WIkipédia</dc:description>
<dc:subject>
<rdf:Bag>
<rdf:li>blason suisse modèle gabarit projet blasons</rdf:li>
</rdf:Bag>
</dc:subject>
<dc:language>fr</dc:language>
<dc:title>Gabrit d'un blason suisse</dc:title>
</cc:Work>
<cc:License rdf:about="http://creativecommons.org/licenses/GPL/2.0/">
<cc:permits rdf:resource="http://web.resource.org/cc/Reproduction"/>
<cc:permits rdf:resource="http://web.resource.org/cc/Distribution"/>
<cc:requires rdf:resource="http://web.resource.org/cc/Notice"/>
<cc:permits rdf:resource="http://web.resource.org/cc/DerivativeWorks"/>
<cc:requires rdf:resource="http://web.resource.org/cc/ShareAlike"/>
<cc:requires rdf:resource="http://web.resource.org/cc/SourceCode"/>
</cc:License>
</rdf:RDF>
</metadata>
<defs>
<radialGradient id="a" cx="858.04" cy="579.93" r="300" gradientTransform="matrix(1.215 1.5316e-24 1.4647e-23 1.2667 -839.19 -490.49)" gradientUnits="userSpaceOnUse">
<stop stop-color="#fff" stop-opacity=".31373" offset="0"/>
<stop stop-color="#fff" stop-opacity=".25098" offset=".19"/>
<stop stop-color="#6b6b6b" stop-opacity=".12549" offset=".6"/>
<stop stop-opacity=".12549" offset="1"/>
</radialGradient>
</defs>
<desc>Coat of Arms of Canton of Freiburg (Fribourg)</desc>
<g>
<path d="m1.5 1.5v458.87c0 166.31 134.31 301.13 300 301.13 165.69 0 300-134.82 300-301.13v-458.87h-600z" fill="#2b5df2"/>
<path d="m301.5 667.56c7.062-23.685 22.948-28.981 29.127-43.104 6.18-14.12 9.208-27.549-0.883-49.424 10.591 23.83 46.78 32.656 74.141 17.649 27.362-15.003 18.535-65.314 18.535-65.314-19.417 37.954-55.015 30.641-66.197 5.296-13.24-30.008-4.413-105.92 14.123-150.93 18.535-45.014 65.314-49.426 83.85-28.243 29.875 34.142-7.061 71.494-7.061 71.494s35.306 0 60.901-23.831c25.598-23.832 57.847-90.508 2.648-144.75-51.193-50.31-139.28-0.805-160.64 47.663 22.067-48.545 12.358-101.5 0-131.51-14.679-35.65-40.601-61.785-48.544-110.48-7.943 48.693-33.865 74.828-48.545 110.48-12.357 30.01-22.066 82.968 0 131.51-21.359-48.468-109.45-97.973-160.64-47.663-55.198 54.246-22.948 120.92 2.647 144.75 25.597 23.831 60.902 23.831 60.902 23.831s-36.936-37.353-7.062-71.494c18.536-21.183 65.315-16.771 83.851 28.243 18.535 45.016 27.362 120.92 14.122 150.93-11.182 25.345-46.779 32.658-66.198-5.296 0 0-8.826 50.312 18.536 65.314 27.361 15.007 63.55 6.181 74.142-17.649-10.09 21.875-7.062 35.304-0.883 49.424 6.18 14.122 22.067 19.419 29.129 43.104z" fill="#fcef3c" stroke="#000" stroke-linecap="round" stroke-linejoin="round" stroke-width="3"/>
<path d="m273.26 575.03c10.591-23.832 15.006-70.612 11.475-105.92-3.261-32.602-7.439-109.28-31.775-165.05" fill="none" stroke="#000" stroke-linecap="round" stroke-linejoin="round" stroke-width="3"/>
<line x1="301.5" x2="301.5" y1="623.89" y2="155.66" fill="none" stroke="#000" stroke-linecap="round" stroke-linejoin="round" stroke-width="3"/>
<path d="m329.74 575.03c-10.592-23.832-15.006-70.612-11.475-105.92 3.261-32.602 7.438-109.28 31.774-165.05" fill="none" stroke="#000" stroke-linecap="round" stroke-linejoin="round" stroke-width="3"/>
<path d="m355.24 432.21h-107.48c-8.709 0-14.609 14.486-14.609 38.15 0 21.069 9.119 38.149 19.342 38.149h98.02c10.223 0 19.342-17.08 19.342-38.149-1e-3 -23.664-5.902-38.15-14.611-38.15z" fill="#fcef3c" stroke="#000" stroke-linecap="round" stroke-linejoin="round" stroke-width="3"/>
<path d="m362.78 452.82h-122.55c-9.685 0-17.536 7.851-17.536 17.536s7.852 17.537 17.536 17.537h122.55c9.685 0 17.536-7.853 17.536-17.537 0-9.685-7.852-17.536-17.537-17.536z" fill="#fcef3c" stroke="#000" stroke-linecap="round" stroke-linejoin="round" stroke-width="3"/>
</g>
<g>
<path d="m1.5 1.5v458.87c0 166.31 134.31 301.13 300 301.13 165.69 0 300-134.82 300-301.13v-458.87h-600z" fill="url(#a)"/>
<path d="m1.5 1.5v458.87c0 166.31 134.31 301.13 300 301.13 165.69 0 300-134.82 300-301.13v-458.87h-600z" fill="none" stroke="#000" stroke-width="3"/>
</g>
</svg>

<?xml version="1.0" encoding="UTF-8" standalone="no"?>
<svg
   xmlns:i="http://ns.adobe.com/AdobeIllustrator/10.0/"
   xmlns:dc="http://purl.org/dc/elements/1.1/"
   xmlns:cc="http://web.resource.org/cc/"
   xmlns:rdf="http://www.w3.org/1999/02/22-rdf-syntax-ns#"
   xmlns:svg="http://www.w3.org/2000/svg"
   xmlns="http://www.w3.org/2000/svg"
   xmlns:xlink="http://www.w3.org/1999/xlink"
   xmlns:sodipodi="http://sodipodi.sourceforge.net/DTD/sodipodi-0.dtd"
   xmlns:inkscape="http://www.inkscape.org/namespaces/inkscape"
   height="763"
   width="603"
   version="1.0"
   id="svg20"
   sodipodi:version="0.32"
   inkscape:version="0.44"
   sodipodi:docname="Campo(Vallemaggia)-coat_of_arms.svg"
   sodipodi:docbase="C:\Documents and Settings\Steve\Bureau\Blasons Suisse pour Wikimedia (par Delta-9)\Communes\[TI]\District de la Vallemaggia">
  <metadata
     id="metadata31">
    <rdf:RDF>
      <cc:Work
         rdf:about="">
        <dc:format>image/svg+xml</dc:format>
        <dc:type
           rdf:resource="http://purl.org/dc/dcmitype/StillImage" />
        <dc:date>07-AUG-2006</dc:date>
        <dc:creator>
          <cc:Agent>
            <dc:title>Jérôme BLUM (wagner51)</dc:title>
          </cc:Agent>
        </dc:creator>
        <cc:license
           rdf:resource="http://creativecommons.org/licenses/GPL/2.0/" />
        <dc:coverage />
        <dc:description>Gabarit pour le Projet:Blasons de WIkipédia</dc:description>
        <dc:subject>
          <rdf:Bag>
            <rdf:li>blason suisse modèle gabarit projet blasons</rdf:li>
          </rdf:Bag>
        </dc:subject>
        <dc:language>fr</dc:language>
        <dc:title>Gabrit d'un blason suisse</dc:title>
      </cc:Work>
      <cc:License
         rdf:about="http://creativecommons.org/licenses/GPL/2.0/">
        <cc:permits
           rdf:resource="http://web.resource.org/cc/Reproduction" />
        <cc:permits
           rdf:resource="http://web.resource.org/cc/Distribution" />
        <cc:requires
           rdf:resource="http://web.resource.org/cc/Notice" />
        <cc:permits
           rdf:resource="http://web.resource.org/cc/DerivativeWorks" />
        <cc:requires
           rdf:resource="http://web.resource.org/cc/ShareAlike" />
        <cc:requires
           rdf:resource="http://web.resource.org/cc/SourceCode" />
      </cc:License>
    </rdf:RDF>
  </metadata>
  <defs
     id="defs29"><linearGradient
   id="linearGradient2893">
  <stop
     style="stop-color:#ffffff;stop-opacity:0.3137255;"
     offset="0"
     id="stop2895" />
  <stop
     id="stop2897"
     offset="0.19"
     style="stop-color:#ffffff;stop-opacity:0.25098041;" />
  <stop
     style="stop-color:#6b6b6b;stop-opacity:0.1254902;"
     offset="0.60000002"
     id="stop2901" />
  <stop
     style="stop-color:#000000;stop-opacity:0.1254902;"
     offset="1"
     id="stop2899" />
</linearGradient>
<linearGradient
   id="linearGradient2955">
  <stop
     style="stop-color:white;stop-opacity:0;"
     offset="0"
     id="stop2965" />
  <stop
     style="stop-color:black;stop-opacity:0.64583331;"
     offset="1"
     id="stop2959" />
</linearGradient>
<radialGradient
   inkscape:collect="always"
   xlink:href="#linearGradient2893"
   id="radialGradient3236"
   gradientUnits="userSpaceOnUse"
   gradientTransform="matrix(1.215027,1.531577e-24,1.464684e-23,1.266667,-839.1924,-490.4894)"
   cx="858.04236"
   cy="579.93323"
   fx="858.04236"
   fy="579.93323"
   r="300" />

			<foreignObject
   requiredExtensions="http://ns.adobe.com/AdobeIllustrator/10.0/"
   x="0"
   y="0"
   width="1"
   height="1"
   id="foreignObject1961">
				<i:pgfRef
   xlink:href="#adobe_illustrator_pgf">
				</i:pgfRef>

			</foreignObject>

			
		
				
			
					
					
					
					
						
					
					
					
				</defs>
  <sodipodi:namedview
     inkscape:window-height="691"
     inkscape:window-width="939"
     inkscape:pageshadow="2"
     inkscape:pageopacity="0.0"
     guidetolerance="10.0"
     gridtolerance="10.0"
     objecttolerance="10.0"
     borderopacity="1.0"
     bordercolor="#666666"
     pagecolor="#ffffff"
     id="base"
     inkscape:zoom="0.4300232"
     inkscape:cx="140.64925"
     inkscape:cy="375.17722"
     inkscape:window-x="20"
     inkscape:window-y="42"
     inkscape:current-layer="layer2"
     showgrid="false"
     showguides="true"
     inkscape:guide-bbox="true" />
  <desc
     id="desc22">Coat of Arms of Canton of Freiburg (Fribourg)</desc>
  <g
     inkscape:groupmode="layer"
     id="layer1"
     inkscape:label="Fond écu"
     style="opacity:1"
     sodipodi:insensitive="true">
    <path
       id="path1899"
       d="M 1.5,1.49998 L 1.5,460.3679 C 1.5,626.6785 135.81456,761.5 301.49999,761.5 C 467.18543,761.5 601.5,626.6785 601.5,460.3679 L 601.5,1.49998 L 1.5,1.49998 z "
       style="fill:#2b5df2;fill-opacity:1;stroke:none" />
  </g>
  <g
     inkscape:groupmode="layer"
     id="layer2"
     inkscape:label="Meubles"
     style="opacity:1"
     sodipodi:insensitive="true">
    <path
       style="fill:#fcef3c;stroke:black;stroke-width:3;stroke-linecap:round;stroke-linejoin:round"
       i:knockout="Off"
       d="M 301.5,667.555 C 308.562,643.87 324.448,638.574 330.627,624.451 C 336.807,610.331 339.835,596.902 329.744,575.027 C 340.335,598.857 376.524,607.683 403.885,592.676 C 431.247,577.673 422.42,527.362 422.42,527.362 C 403.003,565.316 367.405,558.003 356.223,532.658 C 342.983,502.65 351.81,426.743 370.346,381.727 C 388.881,336.713 435.66,332.301 454.196,353.484 C 484.071,387.626 447.135,424.978 447.135,424.978 C 447.135,424.978 482.441,424.978 508.036,401.147 C 533.634,377.315 565.883,310.639 510.684,256.393 C 459.491,206.083 371.404,255.588 350.043,304.056 C 372.11,255.511 362.401,202.553 350.043,172.543 C 335.364,136.893 309.442,110.758 301.499,62.065 C 293.556,110.758 267.634,136.893 252.954,172.543 C 240.597,202.553 230.888,255.511 252.954,304.056 C 231.595,255.588 143.507,206.083 92.314,256.393 C 37.116,310.639 69.366,377.315 94.961,401.147 C 120.558,424.978 155.863,424.978 155.863,424.978 C 155.863,424.978 118.927,387.625 148.801,353.484 C 167.337,332.301 214.116,336.713 232.652,381.727 C 251.187,426.743 260.014,502.65 246.774,532.658 C 235.592,558.003 199.995,565.316 180.576,527.362 C 180.576,527.362 171.75,577.674 199.112,592.676 C 226.473,607.683 262.662,598.857 273.254,575.027 C 263.164,596.902 266.192,610.331 272.371,624.451 C 278.551,638.573 294.438,643.87 301.5,667.555 z "
       id="path1967" />
    <path
       style="fill:none;stroke:black;stroke-width:3;stroke-linecap:round;stroke-linejoin:round"
       i:knockout="Off"
       d="M 273.256,575.027 C 283.847,551.195 288.262,504.415 284.731,469.109 C 281.47,436.507 277.292,359.829 252.956,304.056"
       id="path1969" />
    <line
       style="fill:none;stroke:black;stroke-width:3;stroke-linecap:round;stroke-linejoin:round"
       i:knockout="Off"
       x1="301.5"
       y1="623.89398"
       x2="301.5"
       y2="155.657"
       id="line1971" />
    <path
       style="fill:none;stroke:black;stroke-width:3;stroke-linecap:round;stroke-linejoin:round"
       i:knockout="Off"
       d="M 329.744,575.027 C 319.152,551.195 314.738,504.415 318.269,469.109 C 321.53,436.507 325.707,359.829 350.043,304.056"
       id="path1973" />
    <path
       style="fill:#fcef3c;stroke:black;stroke-width:3;stroke-linecap:round;stroke-linejoin:round"
       i:knockout="Off"
       d="M 355.242,432.211 L 247.758,432.211 C 239.049,432.211 233.149,446.697 233.149,470.361 C 233.149,491.43 242.268,508.51 252.491,508.51 L 350.511,508.51 C 360.734,508.51 369.853,491.43 369.853,470.361 C 369.852,446.697 363.951,432.211 355.242,432.211 z "
       id="path1975" />
    <path
       style="fill:#fcef3c;stroke:black;stroke-width:3;stroke-linecap:round;stroke-linejoin:round"
       i:knockout="Off"
       d="M 362.776,452.825 L 240.224,452.825 C 230.539,452.825 222.688,460.676 222.688,470.361 C 222.688,480.046 230.54,487.898 240.224,487.898 L 362.777,487.898 C 372.462,487.898 380.313,480.045 380.313,470.361 C 380.313,460.676 372.461,452.825 362.776,452.825 z "
       id="path1977" />
  </g>
  <g
     inkscape:groupmode="layer"
     id="layer3"
     inkscape:label="Reflet final"
     style="display:inline"
     sodipodi:insensitive="true">
    <path
       style="fill:url(#radialGradient3236);fill-opacity:1"
       d="M 1.5,1.5 L 1.5,460.3679 C 1.5,626.67854 135.81454,761.5 301.49993,761.5 C 467.1854,761.5 601.5,626.67854 601.5,460.3679 L 601.5,1.5 L 1.5,1.5 z "
       id="path2346" />
  </g>
  <g
     inkscape:groupmode="layer"
     id="layer4"
     inkscape:label="Contour final"
     style="display:inline"
     sodipodi:insensitive="true">
    <path
       style="fill:none;fill-opacity:1;stroke:#000000;stroke-width:3;stroke-miterlimit:4;stroke-dasharray:none;stroke-opacity:1"
       d="M 1.5,1.5 L 1.5,460.36794 C 1.5,626.67854 135.81454,761.5 301.49993,761.5 C 467.1854,761.5 601.5,626.67854 601.5,460.36794 L 601.5,1.5 L 1.5,1.5 z "
       id="path3239" />
  </g>
</svg>
